X:2
T: Burning Down the Piper's Hut
K:Edor
M:C|
L:1/8
"Em"EFGA B4|BAB=c B2 AG|"D"F2D2A2D2|FGAB A2 GF|
"Em"EFGA B3 B|BAB=c B2 AG|"D"F2D2B2 cd|F2E2"Em" E4:|]
|:"Em"EFGA B2 E2|d2E2B2 AG|"D"F2D2A2D2|FGAB A2 GF|
"Em"EFGA B2 E2|d2E2B2 AG|"D"F2D2B2 ["Not trans"cd|F2E2"Em" E4:|]["Trans"F2|"E7"E2z2"No chord"A3B|
%%vskip -.5cm
%%sep 0 0 20cm

%%scale .8
%%vskip -.7cm
